resources/icons/20px/trophy.svg

<svg width="20" height="20" viewBox="0 0 20 20" fill="none" xmlns="http://www.w3.org/2000/svg">
<path d="M5 1C5 0.734784 5.10536 0.48043 5.29289 0.292893C5.48043 0.105357 5.73478 0 6 0L14 0C14.2652 0 14.5196 0.105357 14.7071 0.292893C14.8946 0.48043 15 0.734784 15 1V3H19C19.2652 3 19.5196 3.10536 19.7071 3.29289C19.8946 3.48043 20 3.73478 20 4V6C20 7.32608 19.4732 8.59785 18.5355 9.53553C17.5979 10.4732 16.3261 11 15 11H14.584C14.2625 11.735 13.7691 12.3821 13.1454 12.8867C12.5217 13.3914 11.7859 13.7389 11 13.9V18H14C14.2652 18 14.5196 18.1054 14.7071 18.2929C14.8946 18.4804 15 18.7348 15 19C15 19.2652 14.8946 19.5196 14.7071 19.7071C14.5196 19.8946 14.2652 20 14 20H6C5.73478 20 5.48043 19.8946 5.29289 19.7071C5.10536 19.5196 5 19.2652 5 19C5 18.7348 5.10536 18.4804 5.29289 18.2929C5.48043 18.1054 5.73478 18 6 18H9V13.9C8.21405 13.7389 7.47829 13.3914 6.8546 12.8867C6.23092 12.3821 5.73755 11.735 5.416 11H5C3.67392 11 2.40215 10.4732 1.46447 9.53553C0.526784 8.59785 0 7.32608 0 6L0 4C0 3.73478 0.105357 3.48043 0.292893 3.29289C0.48043 3.10536 0.734784 3 1 3H5V1ZM5 5H2V6C2 6.79565 2.31607 7.55871 2.87868 8.12132C3.44129 8.68393 4.20435 9 5 9V5ZM15 9C15.7956 9 16.5587 8.68393 17.1213 8.12132C17.6839 7.55871 18 6.79565 18 6V5H15V9Z" fill="black"/>
</svg>

<svg xmlns="http://www.w3.org/2000/svg" viewBox="0 0 20 20">
  <path d="M5 1a1 1 0 0 1 1-1h8a1 1 0 0 1 1 1v2h4a1 1 0 0 1 1 1v2a5 5 0 0 1-5 5h-.416A5.01 5.01 0 0 1 11 13.9V18h3a1 1 0 0 1 0 2H6a1 1 0 0 1 0-2h3v-4.1A5.01 5.01 0 0 1 5.416 11H5a5 5 0 0 1-5-5V4a1 1 0 0 1 1-1h4zm0 4H2v1a3 3 0 0 0 3 3zm10 4a3 3 0 0 0 3-3V5h-3z"/>
</svg>
